X:330
T:Paddy Reynolds' Dream
C:Paddy Reynolds
M:6/8
K:D
EAB =c2c|Adc d2e|fag efd|ABG FED|
d2d afd|(3Bcd f g~g2|f2d ecA|GEA D3|
